material/.icons/material/laptop-mac.svg

<svg xmlns="http://www.w3.org/2000/svg" viewBox="0 0 24 24"><path d="M12 19a1 1 0 01-1-1 1 1 0 011-1 1 1 0 011 1 1 1 0 01-1 1M4 5h16v11H4m16 2a2 2 0 002-2V5a2 2 0 00-2-2H4c-1.11 0-2 .89-2 2v11a2 2 0 002 2H0a2 2 0 002 2h20a2 2 0 002-2h-4z"/></svg>

<?xml version="1.0" encoding="UTF-8"?><!DOCTYPE svg PUBLIC "-//W3C//DTD SVG 1.1//EN" "http://www.w3.org/Graphics/SVG/1.1/DTD/svg11.dtd"><svg xmlns="http://www.w3.org/2000/svg" xmlns:xlink="http://www.w3.org/1999/xlink" version="1.1" id="mdi-laptop-mac" width="24" height="24" viewBox="0 0 24 24"><path d="M12,19A1,1 0 0,1 11,18A1,1 0 0,1 12,17A1,1 0 0,1 13,18A1,1 0 0,1 12,19M4,5H20V16H4M20,18A2,2 0 0,0 22,16V5C22,3.89 21.1,3 20,3H4C2.89,3 2,3.89 2,5V16A2,2 0 0,0 4,18H0A2,2 0 0,0 2,20H22A2,2 0 0,0 24,18H20Z" /></svg>
